app/dist/common/images/uipath.svg

<svg height="18" width="18" xmlns="http://www.w3.org/2000/svg"><path d="m0 0h18v18h-18z" fill="#fa4616"/><path d="m4 4h10v10h-10zm9 9v-8h-8v8zm-7-6.5v3.34c0 1.4.7 2.16 2 2.16 1.34 0 2-.76 2-2.16v-3.34h-1v3.34c0 .8-.38 1.16-1 1.16s-1-.38-1-1.16v-3.34zm5.5.63a.6.6 0 0 0 .63-.63.61.61 0 0 0 -.63-.63.6.6 0 0 0 -.63.63c0 .37.26.63.63.63zm-.5.52v4.35h1v-4.35z" fill="#fff"/></svg>

<!-- by TradingView --><svg xmlns="http://www.w3.org/2000/svg" width="18" height="18"><path fill="#FA4616" d="M0 0h18v18H0z"/><path d="M4 4h10v10H4V4zm9 9V5H5v8h8zM6 6.5v3.34c0 1.4.7 2.16 2 2.16 1.34 0 2-.76 2-2.16V6.5H9v3.34c0 .8-.38 1.16-1 1.16s-1-.38-1-1.16V6.5H6zm5.5.63a.6.6 0 00.63-.63.61.61 0 00-.63-.63.6.6 0 00-.63.63c0 .37.26.63.63.63zm-.5.52V12h1V7.65h-1z" fill="#fff"/></svg>
